src/symbolic/apps/utilities-system-monitor-symbolic.svg

<svg xmlns="http://www.w3.org/2000/svg" width="16" height="16"><path d="M2 1C0 1 0 3 0 3v10c0 2 2 2 2 2h12c2 0 2-2 2-2V3s0-2-2-2zm7.31 3.97c.26-.08.56.09.63.34L11.37 10H14v1h-3a.52.52 0 0 1-.47-.34L9.47 7.19l-1.53 5.43c-.11.35-.66.45-.88.16L5.75 11H2v-1h4c.16 0 .32.09.41.22l.87 1.19 1.69-6.1c.05-.16.18-.29.34-.34z" fill="#444"/></svg>

<svg xmlns="http://www.w3.org/2000/svg" width="16" height="16" version="1.1">
 <path style="fill:#444444" d="M 2,1 C 0,1 0,3 0,3 V 13 C 0,15 2,15 2,15 H 14 C 16,15 16,13 16,13 V 3 C 16,3 16,1 14,1 Z M 9.31,4.97 C 9.57,4.89 9.87,5.06 9.94,5.31 L 11.37,10 H 14 V 11 H 11 C 10.79,11 10.6,10.85 10.53,10.66 L 9.47,7.19 7.94,12.62 C 7.83,12.97 7.28,13.07 7.06,12.78 L 5.75,11 H 2 V 10 H 6 C 6.16,10 6.32,10.09 6.41,10.22 L 7.28,11.41 8.97,5.31 C 9.02,5.15 9.15,5.02 9.31,4.97 Z"/>
</svg>
